assets/svg/iconmeme_tranding.svg

<svg width="18" height="18" viewBox="0 0 18 18" fill="none" xmlns="http://www.w3.org/2000/svg">
<path d="M4.61678 6.99225L4.61528 6.99375L4.61228 6.996L4.60478 7.002C4.57223 7.0267 4.5407 7.05272 4.51028 7.08C4.43176 7.14955 4.35619 7.22236 4.28378 7.29825C4.10378 7.488 3.87278 7.77 3.65603 8.14725C3.21953 8.9085 2.85278 10.0432 3.05903 11.5605C3.26228 13.0582 3.89153 14.31 4.95503 15.183C6.01553 16.053 7.45103 16.5 9.18728 16.5C10.9775 16.5 12.407 15.8287 13.3528 14.6775C14.2903 13.5367 14.7088 11.9805 14.609 10.2795C14.513 8.6475 13.6243 7.40925 12.839 6.31575L12.6148 6.003C11.7583 4.794 11.0825 3.68025 11.2468 2.12175C11.2551 2.04331 11.2468 1.964 11.2225 1.88897C11.1981 1.81394 11.1583 1.74487 11.1055 1.68624C11.0528 1.6276 10.9883 1.58072 10.9162 1.54864C10.8442 1.51655 10.7662 1.49998 10.6873 1.5C10.4008 1.5 10.0723 1.5885 9.75578 1.722C9.38928 1.87913 9.04345 2.08064 8.72603 2.322C8.03228 2.8455 7.33853 3.6345 6.96878 4.689C6.59978 5.7405 6.78728 6.7425 7.05728 7.47225C7.23503 7.9515 7.04228 8.42475 6.75203 8.56275C6.62853 8.62117 6.48723 8.6296 6.35766 8.58627C6.22809 8.54295 6.12029 8.45121 6.05678 8.33025L5.45228 7.182C5.41445 7.10997 5.36143 7.047 5.2969 6.99744C5.23237 6.94788 5.15786 6.91291 5.0785 6.89494C4.99915 6.87697 4.91684 6.87644 4.83725 6.89337C4.75767 6.91029 4.6827 6.94429 4.61753 6.993" stroke="#9A9A9A" stroke-width="1.2"/>
<path d="M7.10526 10.7215L7.10458 10.7222L7.10322 10.7232L7.09984 10.7259C7.08514 10.737 7.0709 10.7487 7.05715 10.761C7.02169 10.7923 6.98756 10.8251 6.95485 10.8592C6.87355 10.9446 6.76921 11.0715 6.67131 11.2413C6.47416 11.5838 6.3085 12.0945 6.40166 12.7772C6.49346 13.4512 6.77768 14.0145 7.25804 14.4073C7.73704 14.7988 8.38541 15 9.16963 15C9.97824 15 10.6239 14.6979 11.0511 14.1799C11.4745 13.6665 11.6636 12.9662 11.6185 12.2008C11.5751 11.4664 11.1737 10.9092 10.819 10.4171L10.7177 10.2763C10.3309 9.7323 10.0257 9.23111 10.0999 8.52979C10.1036 8.49449 10.0999 8.4588 10.0889 8.42504C10.0779 8.39127 10.0599 8.36019 10.0361 8.33381C10.0122 8.30742 9.98309 8.28632 9.95055 8.27189C9.918 8.25745 9.88277 8.24999 9.84714 8.25C9.71774 8.25 9.56936 8.28983 9.42641 8.3499C9.26087 8.42061 9.10467 8.51129 8.9613 8.6199C8.64795 8.85548 8.3346 9.21052 8.16759 9.68505C8.00093 10.1582 8.08562 10.6091 8.20757 10.9375C8.28785 11.1532 8.20079 11.3661 8.06969 11.4282C8.01391 11.4545 7.95009 11.4583 7.89157 11.4388C7.83305 11.4193 7.78435 11.378 7.75567 11.3236L7.48263 10.8069C7.46554 10.7745 7.4416 10.7461 7.41245 10.7238C7.3833 10.7015 7.34965 10.6858 7.31381 10.6777C7.27796 10.6696 7.24078 10.6694 7.20484 10.677C7.16889 10.6846 7.13503 10.6999 7.1056 10.7219" stroke="#9A9A9A" stroke-width="1.2"/>
</svg>

<svg xmlns="http://www.w3.org/2000/svg" width="18" height="18" fill="none"><path stroke="#9A9A9A" stroke-width="1.2" d="m4.617 6.992-.002.002-.003.002-.007.006q-.049.037-.095.078-.117.105-.226.218c-.18.19-.411.472-.628.85-.436.76-.803 1.895-.597 3.412.203 1.498.833 2.75 1.896 3.623 1.06.87 2.496 1.317 4.232 1.317 1.79 0 3.22-.671 4.166-1.822.937-1.141 1.356-2.698 1.256-4.398-.096-1.632-.985-2.87-1.77-3.964l-.224-.313c-.857-1.209-1.533-2.323-1.368-3.881a.563.563 0 0 0-.56-.622c-.286 0-.615.089-.931.222a5 5 0 0 0-1.03.6c-.694.523-1.387 1.313-1.757 2.367-.37 1.051-.182 2.053.088 2.783.178.48-.015.953-.305 1.09a.53.53 0 0 1-.695-.232l-.605-1.148a.563.563 0 0 0-.834-.189"/><path stroke="#9A9A9A" stroke-width="1.2" d="m7.105 10.722-.002.001-.003.003-.043.035q-.053.047-.102.098a2 2 0 0 0-.284.382c-.197.343-.362.854-.27 1.536.092.674.377 1.238.857 1.63.479.392 1.127.593 1.912.593.808 0 1.454-.302 1.881-.82.424-.514.613-1.214.567-1.98-.043-.734-.444-1.29-.799-1.783l-.101-.14c-.387-.545-.692-1.046-.618-1.747a.253.253 0 0 0-.253-.28c-.13 0-.278.04-.42.1q-.25.106-.466.27c-.313.235-.626.59-.793 1.065-.167.473-.082.924.04 1.252.08.216-.007.43-.138.491a.24.24 0 0 1-.314-.104l-.273-.517a.254.254 0 0 0-.377-.085"/></svg>
